lib/healthicons/icons/solid/places/church.svg

<svg fill="none" height="48" viewBox="0 0 48 48" width="48" xmlns="http://www.w3.org/2000/svg"><g fill="#333"><path d="m23 13.6429v-2.6429h-3v-2h3v-3h2v3h3v2h-3v2.6429l5.2222 3.3571s.7778.5.7778 1.5v23.5h-4v-9c0-1.6569-1.3431-3-3-3s-3 1.3431-3 3v9h-4v-23.5c0-1 .7778-1.5.7778-1.5z"/><path d="m7.5 26.5c-.96098.2782-1.5 1.0797-1.5 2v13.5h9v-18z"/><path d="m42 28.5c0-.9203-.539-1.7218-1.5-2l-7.5-2.5v18h9z"/></g></svg>

<svg width="48" height="48" viewBox="0 0 48 48" fill="none" xmlns="http://www.w3.org/2000/svg">
<path d="M23 13.6429V11L20 11V9L23 9V6H25V9L28 9V11L25 11V13.6429L30.2222 17C30.2222 17 31 17.5 31 18.5V42H27V33C27 31.3431 25.6569 30 24 30C22.3431 30 21 31.3431 21 33V42H17V18.5C17 17.5 17.7778 17 17.7778 17L23 13.6429Z" fill="#333333"/>
<path d="M7.5 26.5C6.53902 26.7782 6 27.5797 6 28.5V42H15V24L7.5 26.5Z" fill="#333333"/>
<path d="M42 28.5C42 27.5797 41.461 26.7782 40.5 26.5L33 24V42H42V28.5Z" fill="#333333"/>
</svg>
